X:071
T: Cambles Are Coming (The)
N: O'Farrell's Pocket Companion v.1 (Sky ed. p.48)
N: correct spelling "Campbells"
N: Possible incorrect notation corrected.
M: 6/8
L: 1/8
Q: 320
K: G
G|B2e dBG|A>BA A2G|B2e dBG|d>BB B2A|
B2e dBG|A>BA g2a|geg dBG|BcB B2 :|
A|g2g gab|ded dBG|gfe gab|gee e2d|
def gfe|def gab|geg dBG|BcB B2 :|
